packages/foundations/assets/icons/functional/images/human/shower_12.svg

<svg width="12" height="12" viewBox="0 0 12 12" fill="none" xmlns="http://www.w3.org/2000/svg">
<g clip-path="url(#clip0_232_257)">
<path fill-rule="evenodd" clip-rule="evenodd" d="M5.10042 8.39988C5.89575 8.39988 6.54651 9.01883 6.5973 9.80132L6.60049 9.89995V10.2C6.60049 10.5314 6.33183 10.8 6.00042 10.8C5.69268 10.8 5.4043 10.5743 5.40034 10.2C5.39928 10.1 5.39928 9.99996 5.40034 9.89995C5.40034 9.75271 5.2914 9.6004 5.10042 9.60003C4.30077 9.59845 3.50077 9.59845 2.70042 9.60003C2.55318 9.60003 2.40313 9.70674 2.40049 9.89995C2.39913 9.99994 2.39913 10.0999 2.40049 10.2C2.40049 10.5314 2.13183 10.8 1.80042 10.8C1.49268 10.8 1.20426 10.5592 1.20034 10.2C1.19925 10.1 1.19925 9.99996 1.20034 9.89995C1.20034 9.10462 1.83225 8.39999 2.70042 8.39988C3.50033 8.39886 4.30033 8.39886 5.10042 8.39988ZM3.91339 4.04999C4.82442 4.04999 5.55042 4.77595 5.55038 5.68698C5.55626 6.59771 4.82411 7.34149 3.91339 7.34995C2.99759 7.34361 2.25676 6.60277 2.25042 5.68698C2.25892 4.77628 3.00267 4.04415 3.91339 4.04999ZM8.44909 6.00287C8.69119 5.94695 8.93277 6.09799 8.98875 6.34014C9.04473 6.58218 8.89384 6.82382 8.65175 6.87963C8.40965 6.93545 8.16806 6.78452 8.11208 6.54237C8.0561 6.30022 8.20699 6.05869 8.44909 6.00287ZM10.1239 5.76091C10.3387 5.6361 10.6142 5.70907 10.7393 5.92389C10.8642 6.13871 10.7915 6.41409 10.5769 6.539C10.3622 6.6638 10.0867 6.59083 9.96166 6.37601C9.83658 6.16109 9.90919 5.88571 10.1239 5.76091ZM6.36144 5.9225C6.48624 5.70785 6.76161 5.63514 6.97642 5.76023C7.19133 5.88532 7.2643 6.16077 7.1394 6.37541C7.01449 6.59016 6.73913 6.66287 6.52432 6.53778C6.30951 6.41269 6.23654 6.13725 6.36144 5.9225ZM8.44911 4.61763C8.69123 4.56181 8.93283 4.71284 8.98871 4.95489C9.0448 5.19704 8.8939 5.43857 8.65179 5.49439C8.40967 5.55031 8.16807 5.39928 8.11208 5.15713C8.0561 4.91508 8.207 4.67355 8.44911 4.61763ZM6.81137 4.57354C6.93618 4.3588 7.21166 4.28609 7.42648 4.41117C7.64129 4.53626 7.71427 4.8117 7.58946 5.02644C7.46455 5.24118 7.18918 5.31379 6.97436 5.1887C6.75954 5.06372 6.68656 4.78818 6.81137 4.57354ZM9.67391 4.41098C9.88866 4.28607 10.1641 4.35904 10.2892 4.57386C10.4143 4.78869 10.3416 5.06406 10.1269 5.18897C9.91218 5.31378 9.63673 5.24091 9.51164 5.02598C9.38655 4.81116 9.45927 4.53579 9.67391 4.41098ZM8.55042 1.19995C8.85812 1.19995 9.15033 1.45711 9.15033 1.79995V2.59435L9.39865 2.62485L9.98742 2.70629C10.3153 2.75435 10.5421 3.05909 10.4941 3.38696C10.446 3.71483 10.1413 3.94166 9.81341 3.89361L9.05391 3.79164C8.88412 3.76385 8.71564 3.74995 8.54845 3.74995C8.38127 3.74995 8.21409 3.76385 8.04692 3.79164L7.28742 3.89361C6.95956 3.94166 6.65481 3.71483 6.60676 3.38696C6.55871 3.05909 6.78554 2.75435 7.11341 2.70629L7.70219 2.62485L7.95034 2.59555L7.95042 1.79995C7.95042 1.46858 8.21905 1.19995 8.55042 1.19995Z" fill="#1A1C1F"/>
</g>
<defs>
<clipPath id="clip0_232_257">
<rect width="12" height="12" fill="white"/>
</clipPath>
</defs>
</svg>

<svg xmlns="http://www.w3.org/2000/svg" width="12" height="12" fill="none"><g clip-path="url(#a)"><path fill="#1A1C1F" fill-rule="evenodd" d="M5.1 8.4A1.5 1.5 0 0 1 6.597 9.8L6.6 9.9v.3a.6.6 0 0 1-.6.6.59.59 0 0 1-.6-.6v-.3c0-.147-.109-.3-.3-.3q-1.2-.003-2.4 0a.295.295 0 0 0-.3.3v.3a.6.6 0 0 1-1.2 0v-.3c0-.795.632-1.5 1.5-1.5zM3.913 4.05c.911 0 1.637.726 1.637 1.637A1.65 1.65 0 0 1 3.913 7.35 1.675 1.675 0 0 1 2.25 5.687 1.65 1.65 0 0 1 3.913 4.05M8.45 6.003a.45.45 0 1 1 .202.877.45.45 0 0 1-.202-.877m1.675-.242a.45.45 0 1 1 .452.78.45.45 0 0 1-.452-.78m-3.763.162a.45.45 0 1 1 .778.452.45.45 0 0 1-.778-.452M8.45 4.618a.45.45 0 1 1 .202.877.45.45 0 0 1-.202-.877m-1.638-.044a.45.45 0 1 1 .778.452.45.45 0 0 1-.778-.452m2.863-.163a.45.45 0 1 1 .452.779.45.45 0 0 1-.452-.779M8.55 1.2c.308 0 .6.257.6.6v.794l.249.03.588.082a.6.6 0 0 1-.174 1.188l-.76-.102a3.1 3.1 0 0 0-1.006 0l-.76.102a.6.6 0 1 1-.174-1.188l.59-.081.247-.03V1.8a.6.6 0 0 1 .6-.6" clip-rule="evenodd"/></g><defs><clipPath id="a"><path fill="#fff" d="M0 0h12v12H0z"/></clipPath></defs></svg>
